icons/src/svg/info.svg

<svg width="32" height="32" viewBox="0 0 32 32" fill="none" xmlns="http://www.w3.org/2000/svg">
<path fill-rule="evenodd" clip-rule="evenodd" d="M16.0127 4.00391C9.37124 4.00391 3.9873 9.38784 3.9873 16.0293C3.9873 22.6707 9.37124 28.0546 16.0127 28.0546C22.6541 28.0546 28.038 22.6707 28.038 16.0293C28.038 9.38784 22.6541 4.00391 16.0127 4.00391ZM1.9873 16.0293C1.9873 8.28327 8.26667 2.00391 16.0127 2.00391C23.7587 2.00391 30.038 8.28327 30.038 16.0293C30.038 23.7753 23.7587 30.0546 16.0127 30.0546C8.26667 30.0546 1.9873 23.7753 1.9873 16.0293Z" fill="#0D0F13"/>
<path fill-rule="evenodd" clip-rule="evenodd" d="M16.0249 14.127C16.5772 14.127 17.0249 14.5747 17.0249 15.127V20.7424C17.0249 21.2946 16.5772 21.7424 16.0249 21.7424C15.4726 21.7424 15.0249 21.2946 15.0249 20.7424V15.127C15.0249 14.5747 15.4726 14.127 16.0249 14.127Z" fill="#0D0F13"/>
<path fill-rule="evenodd" clip-rule="evenodd" d="M16.0249 10.3164C16.5772 10.3164 17.0249 10.7641 17.0249 11.3164V11.5335C17.0249 12.0858 16.5772 12.5335 16.0249 12.5335C15.4726 12.5335 15.0249 12.0858 15.0249 11.5335V11.3164C15.0249 10.7641 15.4726 10.3164 16.0249 10.3164Z" fill="#0D0F13"/>
</svg>

<svg fill="none" xmlns="http://www.w3.org/2000/svg" viewBox="0 0 32 32">
  <path fill-rule="evenodd" clip-rule="evenodd" d="M16.013 4.004c-6.642 0-12.026 5.384-12.026 12.025 0 6.642 5.384 12.026 12.026 12.026 6.641 0 12.025-5.384 12.025-12.026 0-6.641-5.384-12.025-12.025-12.025ZM1.987 16.029c0-7.746 6.28-14.025 14.026-14.025 7.746 0 14.025 6.28 14.025 14.025 0 7.746-6.28 14.026-14.025 14.026-7.746 0-14.026-6.28-14.026-14.026Z" fill="currentColor"/>
  <path fill-rule="evenodd" clip-rule="evenodd" d="M16.025 14.126a1 1 0 0 1 1 1v5.616a1 1 0 0 1-2 0v-5.616a1 1 0 0 1 1-1ZM16.025 10.317a1 1 0 0 1 1 1v.217a1 1 0 1 1-2 0v-.217a1 1 0 0 1 1-1Z" fill="currentColor"/>
</svg>
